src/icons/zero-trust-networks.svg

<svg viewBox="0 0 16 16" xmlns="http://www.w3.org/2000/svg" aria-hidden="true"><path d="M14.9376 3.93504C14.9362 3.4751 14.7722 3.03047 14.4745 2.67991C14.1767 2.32934 13.7645 2.09547 13.3109 2.01971C12.8572 1.94395 12.3914 2.0312 11.9959 2.26599C11.6004 2.50079 11.3008 2.86799 11.1501 3.30254L4.88506 3.28254C4.85486 2.92461 4.72613 2.58204 4.51313 2.2928C4.30014 2.00356 4.01122 1.77895 3.67838 1.64387C3.34555 1.50879 2.98181 1.46852 2.62748 1.52752C2.27316 1.58651 1.9421 1.74248 1.67099 1.97813C1.39989 2.21377 1.19933 2.51988 1.09156 2.86254C0.983789 3.20519 0.97301 3.57099 1.06042 3.9194C1.14783 4.2678 1.33001 4.58519 1.58677 4.83639C1.84352 5.08759 2.16483 5.26278 2.51506 5.34254L3.62006 11.88C3.33691 12.0493 3.10144 12.2877 2.9358 12.573C2.77016 12.8582 2.67978 13.1809 2.67318 13.5107C2.66658 13.8405 2.74396 14.1666 2.89805 14.4582C3.05214 14.7499 3.27787 14.9976 3.55403 15.178C3.83018 15.3584 4.14768 15.4656 4.47668 15.4895C4.80567 15.5135 5.13534 15.4533 5.4347 15.3148C5.73406 15.1762 5.99326 14.9638 6.18794 14.6975C6.38262 14.4312 6.50637 14.1198 6.54756 13.7925L10.5001 12.645C10.6644 12.9071 10.8888 13.1261 11.1546 13.284C11.4205 13.442 11.7203 13.5342 12.0289 13.5531C12.3376 13.5721 12.6464 13.5171 12.9295 13.3928C13.2127 13.2685 13.4622 13.0785 13.6573 12.8385C13.8523 12.5986 13.9873 12.3155 14.0511 12.0129C14.1149 11.7103 14.1056 11.3968 14.024 11.0985C13.9424 10.8002 13.7908 10.5257 13.5819 10.2977C13.3729 10.0697 13.1126 9.89481 12.8226 9.78754L13.4201 5.83004C13.8504 5.73308 14.235 5.49271 14.5108 5.14837C14.7865 4.80403 14.937 4.37618 14.9376 3.93504ZM10.9751 10.0625L8.38256 8.59254C8.4328 8.4186 8.45887 8.23858 8.46006 8.05754C8.45912 7.84387 8.4228 7.63184 8.35256 7.43004L11.6676 5.36004C11.8816 5.56025 12.1379 5.70977 12.4176 5.79754L11.8351 9.69004C11.522 9.74116 11.2265 9.86915 10.9751 10.0625ZM11.1301 4.51504L7.79756 6.59754C7.5207 6.35209 7.17933 6.19104 6.81384 6.13345C6.44834 6.07585 6.074 6.12412 5.73506 6.27254L4.52006 4.58754C4.58944 4.49124 4.65049 4.3892 4.70256 4.28254L11.0776 4.30254C11.0926 4.37504 11.1101 4.44504 11.1301 4.51504ZM5.56506 8.05754C5.56407 7.86993 5.6188 7.68626 5.72231 7.52978C5.82582 7.37331 5.97345 7.25109 6.14649 7.17861C6.31954 7.10613 6.5102 7.08665 6.69433 7.12264C6.87845 7.15864 7.04775 7.24848 7.18076 7.38079C7.31377 7.5131 7.40451 7.68192 7.44148 7.86585C7.47844 8.04978 7.45997 8.24055 7.38841 8.41397C7.31684 8.5874 7.19541 8.73567 7.03948 8.84001C6.88356 8.94434 6.70017 9.00004 6.51256 9.00004C6.26214 9.00005 6.02189 8.90091 5.84434 8.7243C5.66679 8.54769 5.56639 8.30797 5.56506 8.05754ZM13.0001 3.00004C13.1875 3.00004 13.3707 3.05561 13.5265 3.15973C13.6823 3.26384 13.8037 3.41182 13.8754 3.58495C13.9472 3.75808 13.9659 3.94859 13.9294 4.13239C13.8928 4.31619 13.8026 4.48502 13.67 4.61753C13.5375 4.75004 13.3687 4.84028 13.1849 4.87684C13.0011 4.9134 12.8106 4.89463 12.6375 4.82292C12.4643 4.7512 12.3164 4.62976 12.2122 4.47395C12.1081 4.31813 12.0526 4.13494 12.0526 3.94754C12.0526 3.69625 12.1524 3.45525 12.3301 3.27756C12.5078 3.09987 12.7488 3.00004 13.0001 3.00004ZM2.00006 3.44504C2.00006 3.25764 2.05563 3.07446 2.15975 2.91864C2.26386 2.76282 2.41184 2.64138 2.58497 2.56967C2.7581 2.49795 2.94862 2.47919 3.13241 2.51575C3.31621 2.55231 3.48504 2.64255 3.61755 2.77506C3.75006 2.90757 3.8403 3.0764 3.87686 3.26019C3.91342 3.44399 3.89465 3.6345 3.82294 3.80764C3.75123 3.98077 3.62978 4.12875 3.47397 4.23286C3.31815 4.33697 3.13496 4.39254 2.94756 4.39254C2.69627 4.39254 2.45527 4.29272 2.27758 4.11503C2.09989 3.93734 2.00006 3.69634 2.00006 3.44504ZM3.52256 5.30504C3.59862 5.28194 3.67297 5.25354 3.74506 5.22004L4.95256 6.89754C4.79507 7.1077 4.68189 7.34764 4.61987 7.60283C4.55785 7.85802 4.54829 8.12314 4.59177 8.38214C4.63524 8.64113 4.73085 8.88861 4.8728 9.10956C5.01475 9.33051 5.20008 9.52034 5.41756 9.66754L4.77256 11.61C4.72006 11.61 4.67006 11.61 4.61756 11.61H4.58756L3.52256 5.30504ZM4.61756 14.5C4.43006 14.5 4.24677 14.4444 4.0909 14.3402C3.93503 14.236 3.81359 14.0878 3.74195 13.9146C3.67031 13.7413 3.65169 13.5506 3.68846 13.3668C3.72522 13.1829 3.81571 13.0141 3.94847 12.8817C4.08123 12.7493 4.25029 12.6592 4.43425 12.6229C4.61821 12.5867 4.8088 12.6058 4.98189 12.6779C5.15498 12.75 5.30279 12.8718 5.4066 13.028C5.51041 13.1841 5.56556 13.3675 5.56506 13.555C5.5644 13.8059 5.46428 14.0463 5.28667 14.2234C5.10905 14.4006 4.86842 14.5 4.61756 14.5ZM6.41256 12.7975C6.26641 12.4532 6.02429 12.1581 5.71506 11.9475L6.36256 10C6.41256 10 6.46006 10 6.51256 10C7.01903 9.99981 7.50533 9.80152 7.86756 9.44754L10.3676 10.855C10.269 11.0928 10.218 11.3476 10.2176 11.605C10.2176 11.6325 10.2176 11.6575 10.2176 11.685L6.41256 12.7975ZM12.1626 12.5625C11.9752 12.5625 11.792 12.507 11.6362 12.4029C11.4803 12.2987 11.3589 12.1508 11.2872 11.9776C11.2155 11.8045 11.1967 11.614 11.2333 11.4302C11.2698 11.2464 11.3601 11.0776 11.4926 10.9451C11.6251 10.8125 11.7939 10.7223 11.9777 10.6857C12.1615 10.6492 12.352 10.668 12.5252 10.7397C12.6983 10.8114 12.8463 10.9328 12.9504 11.0886C13.0545 11.2445 13.1101 11.4276 13.1101 11.615C13.1094 11.7399 13.0841 11.8634 13.0356 11.9784C12.987 12.0935 12.9162 12.1978 12.8273 12.2853C12.7383 12.3729 12.6329 12.4421 12.5171 12.4888C12.4013 12.5355 12.2774 12.5589 12.1526 12.5575L12.1626 12.5625Z"></path></svg>

<svg xmlns="http://www.w3.org/2000/svg" aria-hidden="true" viewBox="0 0 16 16"><path d="M14.938 3.935a1.948 1.948 0 0 0-3.788-.632l-6.265-.02a1.945 1.945 0 1 0-2.37 2.06L3.62 11.88a1.946 1.946 0 1 0 2.928 1.912l3.952-1.147a1.945 1.945 0 1 0 2.323-2.857l.597-3.958a1.945 1.945 0 0 0 1.518-1.895m-3.963 6.127-2.592-1.47q.075-.261.077-.534-.001-.323-.107-.628l3.315-2.07c.214.2.47.35.75.438l-.583 3.892a1.9 1.9 0 0 0-.86.373m.155-5.547L7.798 6.598a1.94 1.94 0 0 0-2.063-.325L4.52 4.588q.104-.146.183-.305l6.375.02q.022.107.052.212M5.565 8.058a.948.948 0 1 1 1.895-.01.948.948 0 0 1-1.895.01M13 3a.947.947 0 1 1 0 1.895A.947.947 0 0 1 13 3M2 3.445a.947.947 0 1 1 1.895 0 .947.947 0 0 1-1.895 0m1.523 1.86a2 2 0 0 0 .222-.085l1.208 1.678a1.94 1.94 0 0 0 .465 2.77l-.645 1.942h-.185zM4.618 14.5a.948.948 0 1 1 0-1.895.948.948 0 0 1 0 1.895m1.795-1.703a1.95 1.95 0 0 0-.698-.85L6.363 10h.15a1.94 1.94 0 0 0 1.355-.552l2.5 1.407c-.099.238-.15.493-.15.75v.08zm5.75-.235a.947.947 0 1 1 .873-.584.95.95 0 0 1-.883.58z"/></svg>
